img/icones/diferenciais/tempo-icone.svg

<svg width="48" height="48" fill="none" xmlns="http://www.w3.org/2000/svg"><path d="m44 11.44-9.2-7.72-2.58 3.06 9.2 7.72L44 11.44ZM15.76 6.78 13.2 3.72 4 11.42l2.58 3.06 9.18-7.7ZM25 16h-3v12l9.5 5.7 1.5-2.46-8-4.74V16Zm-1-8C14.06 8 6 16.06 6 26s8.04 18 18 18c9.94 0 18-8.06 18-18S33.94 8 24 8Zm0 32c-7.74 0-14-6.26-14-14s6.26-14 14-14 14 6.26 14 14-6.26 14-14 14Z" fill="url(#a)"/><defs><linearGradient id="a" x1="24" y1="4.526" x2="32.556" y2="41.198" gradientUnits="userSpaceOnUse"><stop stop-color="#345EC2"/><stop offset="1" stop-color="#113896"/></linearGradient></defs></svg>

<svg width="48" height="48" viewBox="0 0 48 48" fill="none" xmlns="http://www.w3.org/2000/svg">
<path d="M44 11.44L34.8 3.71997L32.22 6.77997L41.42 14.5L44 11.44ZM15.76 6.77997L13.2 3.71997L4 11.42L6.58 14.48L15.76 6.77997ZM25 16H22V28L31.5 33.7L33 31.24L25 26.5V16ZM24 7.99997C14.06 7.99997 6 16.06 6 26C6 35.94 14.04 44 24 44C33.94 44 42 35.94 42 26C42 16.06 33.94 7.99997 24 7.99997ZM24 40C16.26 40 10 33.74 10 26C10 18.26 16.26 12 24 12C31.74 12 38 18.26 38 26C38 33.74 31.74 40 24 40Z" fill="url(#paint0_linear_434_490)"/>
<defs>
<linearGradient id="paint0_linear_434_490" x1="24" y1="4.52557" x2="32.5557" y2="41.1983" gradientUnits="userSpaceOnUse">
<stop stop-color="#345EC2"/>
<stop offset="1" stop-color="#113896"/>
</linearGradient>
</defs>
</svg>
